icons/GoogleFormsColor.svg

<svg width="16" height="16" viewBox="0 0 16 16" fill="none" xmlns="http://www.w3.org/2000/svg">
<path d="M9.20066 4.39999L11.1748 4.77308L12.8007 4.39999L9.20066 0.799988L8.70386 2.50639L9.20066 4.39999Z" fill="#56368A"/>
<path d="M9.2008 4.39999V0.799988H3.38415C2.84169 0.799988 2.40015 1.23935 2.40015 1.78181V14.2182C2.40015 14.7606 2.84169 15.2 3.38415 15.2H11.819C12.3614 15.2 12.8008 14.7606 12.8008 14.2182V4.39999H9.2008Z" fill="#7248B9"/>
<path d="M5.10981 11.191C4.83899 11.191 4.6189 10.9709 4.6189 10.7C4.6189 10.4292 4.83899 10.2091 5.10981 10.2091C5.38062 10.2091 5.60071 10.4292 5.60071 10.7C5.60071 10.9709 5.38062 11.191 5.10981 11.191ZM5.10981 9.22732C4.83899 9.22732 4.6189 9.00722 4.6189 8.73641C4.6189 8.46559 4.83899 8.2455 5.10981 8.2455C5.38062 8.2455 5.60071 8.46559 5.60071 8.73641C5.60071 9.00722 5.38062 9.22732 5.10981 9.22732ZM5.10981 7.26368C4.83899 7.26368 4.6189 7.04359 4.6189 6.77277C4.6189 6.50195 4.83899 6.28186 5.10981 6.28186C5.38062 6.28186 5.60071 6.50195 5.60071 6.77277C5.60071 7.04359 5.38062 7.26368 5.10981 7.26368ZM10.5098 11.1091H6.4189V10.291H10.5098V11.1091ZM10.5098 9.1455H6.4189V8.32732H10.5098V9.1455ZM10.5098 7.18186H6.4189V6.36368H10.5098V7.18186Z" fill="white"/>
</svg>

<svg width="16" height="16" fill="none" xmlns="http://www.w3.org/2000/svg"><path d="m9.2 4.4 1.975.373L12.8 4.4 9.2.8l-.497 1.706L9.2 4.4z" fill="#56368A"/><path d="M9.2 4.4V.8H3.385a.983.983 0 0 0-.984.982v12.436c0 .543.442.982.984.982h8.435c.542 0 .982-.44.982-.982V4.4H9.2z" fill="#7248B9"/><path d="M5.11 11.191a.491.491 0 1 1 0-.983.491.491 0 0 1 0 .983zm0-1.964a.491.491 0 1 1 0-.982.491.491 0 0 1 0 .982zm0-1.963a.491.491 0 1 1 0-.983.491.491 0 0 1 0 .983zm5.4 3.845H6.419v-.818h4.09v.818zm0-1.963H6.419v-.819h4.09v.819zm0-1.964H6.419v-.818h4.09v.818z" fill="#fff"/></svg>
